X:2686
T:Carolan's quarrel with the landlady
S:Charlie Saksena
R:Other
O:Ireland
M:6/8
L:1/16
C:Turlough O'Carolan
K:Em
BA|\
G3AB2 g4ga|bagfed g4gf|\
e3fed e2f2gf|edcBAG A4BA|
G3AB2 g4ga|bagfed g4gf|\
e2fedB d2edBA|B6 [g4e4B4]gf|\
e2fedB d2edBA|B2e2e2 e4||
ga|\
b2g2b2 bagfed|d2f2g2 a4(3abc'|\
bagfed e2f2gf|edcBAG A3cBA|
G3AB2 g4ga|bagfed g4f2|\
e2fedB d2edBA|B6 e4f2|\
e2fedB d2edBA|B2e2e2 e4||


